X:41
T:Malcie MacKinnon
R:strathspey
C:Paul S. Cranford
O:Cape Breton Island
S:http://www.cranfordpub.com
D:currently unrecorded
B:currently unpublished in book form
Z:psc, (re-formatted,updated 9/17/04)
N:
H:                                                        copyrights Cranford Publications, SOCAN
L:1/8
Q:288
M:C|
K:D
f/g/|a>gf>e f<d d2|B<ef>d e2 (3(efg)|a>gf>e f<d d2|B>ec<A d2 d:|
||e|f<dg>e f<d d2|B<ef>d e2 (3(efg)|f<dg>e fec<A d2 (3dee|
f<dg>e f<d d2|B<ef>d e2 (3(efg)|a>gf>e f<d d2|B>ec<A d2 d|]
